dist/images/logo-320.svg

<svg width="112" height="18" viewBox="0 0 112 18" fill="none" xmlns="http://www.w3.org/2000/svg">
<path d="M25.2119 14.658V2.3453H28.466V6.91859H33.2152V2.3453H36.4692V14.658H33.2152V9.90882H28.466V14.658H25.2119Z" fill="white"/>
<path d="M38.3958 3.04889C38.3958 2.62674 38.5542 2.27494 38.8708 1.99351C39.1874 1.70035 39.5861 1.55377 40.0669 1.55377C40.5476 1.55377 40.9463 1.70035 41.2629 1.99351C41.5796 2.27494 41.7379 2.62674 41.7379 3.04889C41.7379 3.45931 41.5796 3.8111 41.2629 4.10426C40.9463 4.39742 40.5476 4.544 40.0669 4.544C39.5861 4.544 39.1874 4.39742 38.8708 4.10426C38.5542 3.8111 38.3958 3.45931 38.3958 3.04889ZM38.5717 14.658V5.51143H41.562V14.658H38.5717Z" fill="white"/>
<path d="M44.2404 13.2684C43.4547 12.4007 43.0619 11.2808 43.0619 9.90882C43.0619 8.53683 43.4547 7.41696 44.2404 6.54921C45.0261 5.68146 45.9818 5.24758 47.1075 5.24758C47.9166 5.24758 48.6143 5.48211 49.2007 5.95117C49.4704 6.16224 49.6814 6.39677 49.8339 6.65475H50.0098V5.51143H53V18H44.2932V15.6254H50.0098V13.2508H49.8339C49.6697 13.5088 49.4586 13.7316 49.2007 13.9192C48.6261 14.3531 47.9283 14.5701 47.1075 14.5701C45.9818 14.5701 45.0261 14.1362 44.2404 13.2684ZM46.6678 8.36094C46.316 8.73618 46.1401 9.25214 46.1401 9.90882C46.1401 10.5655 46.316 11.0815 46.6678 11.4567C47.0196 11.8319 47.4886 12.0196 48.0749 12.0196C48.6612 12.0196 49.1303 11.8319 49.4821 11.4567C49.8339 11.0815 50.0098 10.5655 50.0098 9.90882C50.0098 9.25214 49.8339 8.73618 49.4821 8.36094C49.1303 7.98569 48.6612 7.79807 48.0749 7.79807C47.4886 7.79807 47.0196 7.98569 46.6678 8.36094Z" fill="white"/>
<path d="M54.7507 14.658V2.3453H57.7409V6.7427H57.9168C58.081 6.46126 58.2921 6.21501 58.5501 6.00394C59.1481 5.4997 59.8458 5.24758 60.6432 5.24758C61.7221 5.24758 62.5605 5.57592 63.1585 6.2326C63.7683 6.87755 64.0732 7.8098 64.0732 9.02934V14.658H61.083V9.46908C61.083 8.94139 60.9422 8.53097 60.6608 8.23781C60.3794 7.94465 59.9924 7.79807 59.4999 7.79807C58.9957 7.79807 58.5735 7.98569 58.2335 8.36094C57.9051 8.72446 57.7409 9.2111 57.7409 9.82087V14.658H54.7507Z" fill="white"/>
<path d="M70.6741 18V5.51143H73.6643V6.7427H73.8402C74.0044 6.47299 74.2272 6.22674 74.5086 6.00394C75.1536 5.4997 75.8396 5.24758 76.5666 5.24758C77.6923 5.24758 78.648 5.69319 79.4337 6.58439C80.2194 7.46387 80.6122 8.63064 80.6122 10.0847C80.6122 11.5388 80.2194 12.7114 79.4337 13.6026C78.648 14.4821 77.6923 14.9219 76.5666 14.9219C75.8278 14.9219 75.1418 14.6756 74.5086 14.1831C74.2272 13.9603 74.0044 13.7082 73.8402 13.4267H73.6643V18H70.6741ZM74.192 8.39612C73.8402 8.79481 73.6643 9.35768 73.6643 10.0847C73.6643 10.8118 73.8402 11.3746 74.192 11.7733C74.5438 12.172 75.0129 12.3714 75.5992 12.3714C76.1855 12.3714 76.6546 12.172 77.0063 11.7733C77.3581 11.3746 77.534 10.8118 77.534 10.0847C77.534 9.35768 77.3581 8.79481 77.0063 8.39612C76.6546 7.99742 76.1855 7.79807 75.5992 7.79807C75.0129 7.79807 74.5438 7.99742 74.192 8.39612Z" fill="white"/>
<path d="M82.8378 13.6026C82.0522 12.7114 81.6593 11.5388 81.6593 10.0847C81.6593 8.63064 82.0522 7.46387 82.8378 6.58439C83.6235 5.69319 84.5792 5.24758 85.7049 5.24758C86.432 5.24758 87.118 5.4997 87.7629 6.00394C88.0326 6.22674 88.2554 6.47299 88.4313 6.7427H88.6072V5.51143H91.5974V14.658H88.6072V13.4267H88.4313C88.2671 13.7082 88.0443 13.9603 87.7629 14.1831C87.1297 14.6756 86.4437 14.9219 85.7049 14.9219C84.5792 14.9219 83.6235 14.4821 82.8378 13.6026ZM85.2652 8.39612C84.9134 8.79481 84.7375 9.35768 84.7375 10.0847C84.7375 10.8118 84.9134 11.3746 85.2652 11.7733C85.617 12.172 86.086 12.3714 86.6724 12.3714C87.2587 12.3714 87.7277 12.172 88.0795 11.7733C88.4313 11.3746 88.6072 10.8118 88.6072 10.0847C88.6072 9.35768 88.4313 8.79481 88.0795 8.39612C87.7277 7.99742 87.2587 7.79807 86.6724 7.79807C86.086 7.79807 85.617 7.99742 85.2652 8.39612Z" fill="white"/>
<path d="M92.8205 11.6678H95.8107C95.8576 11.8437 95.9573 12.0078 96.1097 12.1603C96.4263 12.4769 96.8837 12.6352 97.4817 12.6352C98.3026 12.6352 98.713 12.43 98.713 12.0196C98.713 11.8319 98.5957 11.6854 98.3612 11.5798C98.1267 11.4626 97.7749 11.3453 97.3058 11.228C96.9188 11.1342 96.6667 11.0756 96.5495 11.0521C96.4322 11.0287 96.1859 10.9642 95.8107 10.8587C95.4354 10.7414 95.1657 10.6417 95.0016 10.5596C94.8491 10.4658 94.6322 10.3368 94.3508 10.1727C94.0811 9.99677 93.8817 9.82087 93.7527 9.64498C93.6355 9.45735 93.5241 9.22869 93.4185 8.95898C93.313 8.67755 93.2602 8.37853 93.2602 8.06192C93.2602 7.28797 93.6061 6.62543 94.298 6.07429C94.9899 5.52315 95.9631 5.24758 97.2179 5.24758C98.7892 5.24758 100.032 5.76354 100.947 6.79547C101.31 7.24107 101.562 7.75117 101.703 8.32576H98.8009C98.7306 8.13814 98.6485 7.99156 98.5547 7.88602C98.285 7.59286 97.898 7.44628 97.3938 7.44628C96.6902 7.44628 96.3384 7.65149 96.3384 8.06192C96.3384 8.26126 96.4556 8.41371 96.6902 8.51925C96.9247 8.62478 97.2824 8.72446 97.7631 8.81827C98.971 9.0997 99.7859 9.34595 100.208 9.55703C101.263 10.073 101.791 10.8645 101.791 11.9316C101.791 12.7759 101.416 13.4854 100.665 14.06C99.9267 14.6346 98.8654 14.9219 97.4817 14.9219C95.7814 14.9219 94.4856 14.3824 93.5944 13.3036C93.1957 12.8228 92.9377 12.2776 92.8205 11.6678Z" fill="white"/>
<path d="M102.577 11.6678H105.567C105.614 11.8437 105.714 12.0078 105.866 12.1603C106.183 12.4769 106.64 12.6352 107.238 12.6352C108.059 12.6352 108.47 12.43 108.47 12.0196C108.47 11.8319 108.352 11.6854 108.118 11.5798C107.883 11.4626 107.532 11.3453 107.063 11.228C106.676 11.1342 106.423 11.0756 106.306 11.0521C106.189 11.0287 105.943 10.9642 105.567 10.8587C105.192 10.7414 104.922 10.6417 104.758 10.5596C104.606 10.4658 104.389 10.3368 104.107 10.1727C103.838 9.99677 103.638 9.82087 103.509 9.64498C103.392 9.45735 103.281 9.22869 103.175 8.95898C103.07 8.67755 103.017 8.37853 103.017 8.06192C103.017 7.28797 103.363 6.62543 104.055 6.07429C104.747 5.52315 105.72 5.24758 106.975 5.24758C108.546 5.24758 109.789 5.76354 110.704 6.79547C111.067 7.24107 111.319 7.75117 111.46 8.32576H108.558C108.487 8.13814 108.405 7.99156 108.311 7.88602C108.042 7.59286 107.655 7.44628 107.15 7.44628C106.447 7.44628 106.095 7.65149 106.095 8.06192C106.095 8.26126 106.212 8.41371 106.447 8.51925C106.681 8.62478 107.039 8.72446 107.52 8.81827C108.728 9.0997 109.543 9.34595 109.965 9.55703C111.02 10.073 111.548 10.8645 111.548 11.9316C111.548 12.7759 111.173 13.4854 110.422 14.06C109.683 14.6346 108.622 14.9219 107.238 14.9219C105.538 14.9219 104.242 14.3824 103.351 13.3036C102.952 12.8228 102.694 12.2776 102.577 11.6678Z" fill="white"/>
<path fill-rule="evenodd" clip-rule="evenodd" d="M3.51792 3.51792V14.0717H14.0717L3.51792 3.51792ZM0 0V17.5896H17.5896V0H0Z" fill="#FF6E30"/>
</svg>

<svg width="112" height="18" fill="none" xmlns="http://www.w3.org/2000/svg"><path d="M25.212 14.658V2.345h3.254V6.92h4.75V2.345h3.253v12.313h-3.254v-4.75h-4.749v4.75h-3.254zM38.396 3.049c0-.422.158-.774.475-1.055.316-.294.715-.44 1.196-.44.48 0 .88.146 1.196.44.317.28.475.633.475 1.055 0 .41-.158.762-.475 1.055-.317.293-.715.44-1.196.44-.48 0-.88-.147-1.196-.44a1.388 1.388 0 01-.475-1.055zm.176 11.609V5.511h2.99v9.147h-2.99zM44.24 13.268c-.785-.867-1.178-1.987-1.178-3.36 0-1.371.393-2.491 1.178-3.359.786-.868 1.742-1.301 2.867-1.301.81 0 1.507.234 2.094.703.27.211.48.446.633.704h.176V5.51H53V18h-8.707v-2.375h5.717v-2.374h-.176c-.164.258-.375.48-.633.668-.575.434-1.273.651-2.093.651-1.126 0-2.082-.434-2.868-1.302zm2.428-4.907c-.352.375-.528.891-.528 1.548 0 .656.176 1.172.528 1.548.352.375.82.563 1.407.563.586 0 1.055-.188 1.407-.563.352-.376.528-.892.528-1.548 0-.657-.176-1.173-.528-1.548-.352-.375-.82-.563-1.407-.563-.586 0-1.055.188-1.407.563zM54.75 14.658V2.345h2.99v4.398h.177a2.72 2.72 0 01.633-.74 3.148 3.148 0 012.093-.755c1.08 0 1.917.328 2.515.985.61.645.915 1.577.915 2.796v5.629h-2.99V9.469c0-.528-.14-.938-.422-1.231-.282-.293-.669-.44-1.161-.44a1.64 1.64 0 00-1.267.563c-.328.363-.492.85-.492 1.46v4.837h-2.99zM70.674 18V5.511h2.99v1.232h.176c.164-.27.387-.516.669-.74.645-.503 1.33-.755 2.058-.755 1.125 0 2.081.445 2.867 1.336.785.88 1.178 2.047 1.178 3.5 0 1.455-.393 2.627-1.178 3.519-.786.88-1.742 1.319-2.867 1.319-.74 0-1.425-.246-2.058-.739a2.703 2.703 0 01-.669-.756h-.176V18h-2.99zm3.518-9.604c-.352.399-.528.962-.528 1.689 0 .727.176 1.29.528 1.688.352.399.82.598 1.407.598.587 0 1.056-.199 1.407-.598.352-.398.528-.961.528-1.688s-.176-1.29-.528-1.689c-.351-.399-.82-.598-1.407-.598-.586 0-1.055.2-1.407.598zM82.838 13.603c-.786-.892-1.179-2.064-1.179-3.518 0-1.454.393-2.621 1.179-3.5.786-.892 1.741-1.337 2.867-1.337.727 0 1.413.252 2.058.756.27.223.492.469.668.739h.176V5.51h2.99v9.147h-2.99v-1.231h-.176a2.703 2.703 0 01-.668.756c-.633.493-1.32.739-2.058.739-1.126 0-2.081-.44-2.867-1.32zm2.427-5.207c-.352.399-.528.962-.528 1.689 0 .727.176 1.29.528 1.688.352.399.821.598 1.407.598.587 0 1.056-.199 1.407-.598.352-.398.528-.961.528-1.688s-.176-1.29-.528-1.689c-.351-.399-.82-.598-1.407-.598-.586 0-1.055.2-1.407.598zM92.82 11.668h2.99c.048.176.147.34.3.492.316.317.774.475 1.372.475.82 0 1.231-.205 1.231-.615 0-.188-.117-.335-.352-.44-.234-.117-.586-.235-1.055-.352a25.35 25.35 0 00-.757-.176 12.808 12.808 0 01-.738-.193 5.97 5.97 0 01-.81-.3c-.152-.093-.369-.222-.65-.386-.27-.176-.47-.352-.598-.528a4.175 4.175 0 01-.335-.686 2.534 2.534 0 01-.158-.897c0-.774.346-1.437 1.038-1.988.692-.55 1.665-.826 2.92-.826 1.571 0 2.814.516 3.729 1.547.363.446.615.956.756 1.53h-2.902a1.397 1.397 0 00-.246-.439c-.27-.293-.657-.44-1.161-.44-.704 0-1.056.205-1.056.616 0 .2.118.352.352.457.235.106.592.205 1.073.3 1.208.28 2.023.527 2.445.738 1.055.516 1.583 1.307 1.583 2.375 0 .844-.375 1.553-1.126 2.128-.738.575-1.8.862-3.183.862-1.7 0-2.996-.54-3.888-1.618a3.584 3.584 0 01-.773-1.636zM102.577 11.668h2.99c.047.176.147.34.299.492.317.317.774.475 1.372.475.821 0 1.232-.205 1.232-.615 0-.188-.118-.335-.352-.44-.235-.117-.586-.235-1.055-.352-.387-.094-.64-.152-.757-.176a13.048 13.048 0 01-.739-.193 5.978 5.978 0 01-.809-.3 31.263 31.263 0 00-.651-.386c-.269-.176-.469-.352-.598-.528a4.224 4.224 0 01-.334-.686 2.545 2.545 0 01-.158-.897c0-.774.346-1.437 1.038-1.988.692-.55 1.665-.826 2.92-.826 1.571 0 2.814.516 3.729 1.547.363.446.615.956.756 1.53h-2.902a1.408 1.408 0 00-.247-.439c-.269-.293-.656-.44-1.161-.44-.703 0-1.055.205-1.055.616 0 .2.117.352.352.457.234.106.592.205 1.073.3 1.208.28 2.023.527 2.445.738 1.055.516 1.583 1.307 1.583 2.375 0 .844-.375 1.553-1.126 2.128-.739.575-1.8.862-3.184.862-1.7 0-2.996-.54-3.887-1.618a3.579 3.579 0 01-.774-1.636z" fill="#fff"/><path fill-rule="evenodd" clip-rule="evenodd" d="M3.518 3.518v10.554h10.554L3.518 3.518zM0 0v17.59h17.59V0H0z" fill="#FF6E30"/></svg>
